svgs/sharp-light/soft-serve.svg

<svg xmlns="http://www.w3.org/2000/svg" viewBox="0 0 384 512"><!--! Font Awesome Pro 6.6.0 by @fontawesome - https://fontawesome.com License - https://fontawesome.com/license (Commercial License) Copyright 2024 Fonticons, Inc. --><path d="M192 0L162.1 0l16.6 24.9 10.8 16.3c1.6 2.4 2.5 5.3 2.5 8.2c0 8.1-6.6 14.7-14.7 14.7L120 64c-39.8 0-72 32.2-72 72c0 10.1 2.1 19.7 5.8 28.4C22.5 175.2 0 205 0 240l0 64 0 16 16 0 32 0 0 64 0 16 16 0 19.9 0 12.2 98 1.8 14 14.1 0 160 0 14.1 0 1.8-14 12.2-98 19.9 0 16 0 0-16 0-64 32 0 16 0 0-16 0-64c0-36.2-24-66.8-57-76.6c5.7-11.2 9-23.9 9-37.4C336 56.4 279.6 0 210 0L192 0zM80 320l224 0 0 48-18 0-14.1 0-1.8 14-12.2 98-131.8 0-12.2-98-1.8-14L98 368l-18 0 0-48zm256-32l-16 0L64 288l-16 0-16 0 0-48c0-26.5 21.5-48 48-48l.8 0 31.2 0 8 0 8 0 0-32-16 0-24 0c-5-6.7-8-15-8-24c0-22.1 17.9-40 40-40l57.3 0C203.1 96 224 75.1 224 49.3c0-5.7-1.1-11.4-3.1-16.7C267.7 38 304 77.8 304 126c0 13.1-5 25.1-13.3 34L240 160l-16 0 0 32 16 0 14 0 43.1 0 6.9 0c26.5 0 48 21.5 48 48l0 48-16 0z"/></svg>

<svg xmlns="http://www.w3.org/2000/svg" viewBox="0 0 384 512"><!--! Font Awesome Pro 6.4.0 by @fontawesome - https://fontawesome.com License - https://fontawesome.com/license (Commercial License) Copyright 2023 Fonticons, Inc. --><path d="M192 0H162.1l16.6 24.9 10.8 16.3c1.6 2.4 2.5 5.3 2.5 8.2c0 8.1-6.6 14.7-14.7 14.7H120c-39.8 0-72 32.2-72 72c0 10.1 2.1 19.7 5.8 28.4C22.5 175.2 0 205 0 240v64 16H16 48v64 16H64 83.9l12.2 98 1.8 14H112 272h14.1l1.8-14 12.2-98H320h16V384 320h32 16V304 240c0-36.2-24-66.8-57-76.6c5.7-11.2 9-23.9 9-37.4C336 56.4 279.6 0 210 0H192zM80 320H304v48H286 271.9l-1.8 14-12.2 98H126.1l-12.2-98-1.8-14H98 80V320zm256-32H320 64 48 32V240c0-26.5 21.5-48 48-48h.8H112h8 8V160H112 88c-5-6.7-8-15-8-24c0-22.1 17.9-40 40-40h57.3C203.1 96 224 75.1 224 49.3c0-5.7-1.1-11.4-3.1-16.7C267.7 38 304 77.8 304 126c0 14.5-6.1 27.5-16 36.7V160H240 224v32h16 14 34 9.1H304c26.5 0 48 21.5 48 48v48H336z"/></svg>
